src/assets/img/icons/payment_system/mastercard.svg

<svg width="31" height="24" viewBox="0 0 31 24" fill="none" xmlns="http://www.w3.org/2000/svg">
<path fill-rule="evenodd" clip-rule="evenodd" d="M14.8875 1.59648C13.3694 0.585377 11.5584 0 9.58763 0C4.2878 0 0 4.2839 0 9.5789C0 14.8739 4.2878 19.1578 9.58763 19.1578C11.5318 19.1578 13.3694 18.5724 14.8875 17.5613C14.8475 17.5347 14.8076 17.5014 14.7676 17.4682C14.7277 17.4349 14.6877 17.4017 14.6478 17.3751C12.384 15.4061 11.1057 12.5856 11.1057 9.5789C11.1057 6.57219 12.384 3.75174 14.6478 1.78274C14.6877 1.75613 14.7277 1.72287 14.7676 1.68961C14.8076 1.65635 14.8475 1.62309 14.8875 1.59648ZM31 9.5789C31 4.31051 26.7122 0 21.4124 0C19.4416 0 17.6306 0.585377 16.1125 1.59648C16.1525 1.62309 16.1924 1.65635 16.2324 1.68961C16.2723 1.72287 16.3123 1.75613 16.3522 1.78274C18.616 3.75174 19.8943 6.57219 19.8943 9.5789C19.8943 12.559 18.5893 15.4061 16.3522 17.3751C16.3123 17.4017 16.2723 17.4349 16.2324 17.4682C16.1924 17.5014 16.1525 17.5347 16.1125 17.5613C17.6306 18.5724 19.4682 19.1578 21.4124 19.1578C26.7122 19.1578 31 14.8739 31 9.5789ZM15.7532 2.26826C15.6699 2.19721 15.5912 2.13008 15.5 2.07543C15.4334 2.12864 15.3735 2.17521 15.3136 2.22177C15.2537 2.26834 15.1937 2.3149 15.1271 2.36812C13.1031 4.12425 11.8247 6.70523 11.8247 9.60551C11.8247 12.4792 13.1031 15.0868 15.1271 16.8429C15.2337 16.9493 15.3668 17.0558 15.5 17.1356C15.5666 17.0824 15.6265 17.0358 15.6864 16.9892C15.7463 16.9427 15.8063 16.8961 15.8729 16.8429C17.8969 15.0868 19.1753 12.5058 19.1753 9.60551C19.1753 6.73184 17.8969 4.12425 15.8729 2.36812C15.8309 2.33455 15.7915 2.30099 15.7532 2.26826ZM5.45085 22.3583V23.9475H4.83346V22.5434C4.83346 22.1176 4.64731 21.8799 4.27501 21.8799C3.93063 21.8799 3.66382 22.0929 3.66382 22.5434V23.9475H3.10537V22.5434C3.10537 22.1176 2.91922 21.8799 2.54693 21.8799C2.17463 21.8799 1.93574 22.0929 1.93574 22.5434V23.9475H1.37729V21.4047H1.93574V21.7226C2.14671 21.4325 2.41352 21.3522 2.68033 21.3522C3.08055 21.3522 3.34737 21.5127 3.53352 21.8028C3.77241 21.4572 4.11988 21.3522 4.43944 21.3522C5.07855 21.3522 5.45085 21.7503 5.45085 22.3583ZM12.8286 21.4047H13.7314V21.9077H12.8254V23.0464C12.8254 23.3087 12.9309 23.4692 13.1977 23.4692C13.3312 23.4692 13.5173 23.4414 13.6786 23.3365L13.84 23.8148C13.6538 23.9198 13.387 24 13.1481 24C12.509 24 12.2701 23.6575 12.2701 23.0742V21.9077H11.7644V21.4047H12.2701V20.6363H12.8286V21.4047ZM17.808 21.7195C17.9414 21.5096 18.1555 21.3492 18.4751 21.3492C18.5806 21.3492 18.7388 21.3492 18.8505 21.3708L18.6891 21.9015C18.5806 21.8769 18.4471 21.8491 18.3417 21.8491C17.9942 21.8491 17.808 22.0898 17.808 22.5126V23.9445H17.2496V21.4016H17.808V21.7195ZM10.2721 21.3492C10.6723 21.3492 11.0446 21.4294 11.3114 21.6145L11.0756 22.0651C10.9143 21.9849 10.5948 21.8522 10.2752 21.8522C9.98047 21.8522 9.79432 21.9571 9.79432 22.1422C9.79432 22.2996 9.98047 22.3521 10.2194 22.3799L10.4862 22.4076C11.0167 22.4879 11.3642 22.7255 11.3642 23.176C11.3642 23.6513 10.936 23.9969 10.1914 23.9969C9.79122 23.9969 9.391 23.892 9.09937 23.6791L9.36618 23.2563C9.55233 23.389 9.84707 23.5217 10.2194 23.5217C10.5917 23.5217 10.8057 23.389 10.8057 23.2038C10.8057 23.0711 10.6444 22.9909 10.3528 22.9384L10.086 22.9107C9.52751 22.8335 9.20796 22.5928 9.20796 22.17C9.20796 21.667 9.63299 21.3492 10.2721 21.3492ZM25.5022 21.7195C25.6356 21.5096 25.8497 21.3492 26.1692 21.3492C26.2778 21.3492 26.436 21.3492 26.5446 21.3769L26.3833 21.9015C26.2747 21.8769 26.1413 21.8491 26.0358 21.8491C25.6883 21.8491 25.5022 22.0898 25.5022 22.5126V23.9445H24.9437V21.4016H25.5022V21.7195ZM20.3924 24C19.5671 24 19.0335 23.4445 19.0335 22.6761C19.0335 21.9077 19.5671 21.3492 20.3924 21.3522C20.7647 21.3522 21.0315 21.4294 21.2983 21.6423L21.0315 22.0929C20.8174 21.9355 20.6034 21.8553 20.3645 21.8553C19.9115 21.8799 19.592 22.1978 19.592 22.6761C19.592 23.1791 19.9115 23.497 20.3645 23.497C20.6065 23.497 20.8174 23.4198 21.0315 23.2594L21.2983 23.7099C21.0315 23.9198 20.7647 24 20.3924 24ZM24.1991 21.4047V22.6761V23.9475H23.6407V23.6297C23.4794 23.8673 23.2126 24 22.8403 24C22.1205 24 21.562 23.4445 21.562 22.6761C21.562 21.9077 22.1205 21.3522 22.8403 21.3522C23.1877 21.3522 23.4546 21.4849 23.6407 21.7226V21.4047H24.1991ZM22.9209 21.8553C22.44 21.8553 22.1484 22.2256 22.1484 22.6761C22.1484 23.1236 22.4431 23.4692 22.9209 23.497C23.3739 23.497 23.6934 23.1267 23.6934 22.6761C23.6934 22.2009 23.3739 21.8553 22.9209 21.8553ZM14.1874 22.673C14.1874 21.8799 14.7211 21.3492 15.4657 21.3492C16.1823 21.3492 16.6632 21.8799 16.6384 22.6977V22.9107H14.749C14.8297 23.3581 15.174 23.5186 15.5215 23.5186C15.7852 23.5186 16.052 23.4137 16.2661 23.2532L16.5329 23.6513C16.2382 23.892 15.8659 23.9969 15.4936 23.9969C14.7211 23.9969 14.1874 23.4692 14.1874 22.673ZM16.1048 22.4354C16.052 22.0404 15.8131 21.8275 15.4657 21.8275C15.0654 21.8275 14.8265 22.0929 14.7738 22.4354H16.1048ZM29.34 20.3987V22.6761V23.9475H28.7815V23.6297C28.6202 23.8673 28.3534 24 27.9811 24C27.2613 24 26.7028 23.4445 26.7028 22.6761C26.7028 21.9077 27.2613 21.3522 27.9811 21.3522C28.3286 21.3522 28.5954 21.4849 28.7815 21.7226V20.3987H29.34ZM28.0617 21.8553C27.5809 21.8553 27.2892 22.2256 27.2892 22.6761C27.2892 23.1236 27.5809 23.4692 28.0617 23.497C28.5147 23.497 28.8343 23.1267 28.8343 22.6761C28.8343 22.2009 28.5147 21.8553 28.0617 21.8553ZM8.59366 21.4047V22.6761V23.9475H8.03522V23.6297C7.87389 23.8673 7.60707 24 7.23478 24C6.515 24 5.95655 23.4445 5.95655 22.6761C5.95655 21.9077 6.515 21.3522 7.23478 21.3522C7.58225 21.3522 7.84907 21.4849 8.03522 21.7226V21.4047H8.59366ZM7.29062 21.8553C6.80974 21.8553 6.5181 22.2256 6.5181 22.6761C6.5181 23.1236 6.80974 23.4692 7.29062 23.497C7.74358 23.497 8.06314 23.1267 8.06314 22.6761C8.06314 22.2009 7.74358 21.8553 7.29062 21.8553Z" fill="#333D48"/>
</svg>

<svg width="31" height="24" fill="none" xmlns="http://www.w3.org/2000/svg"><path fill-rule="evenodd" clip-rule="evenodd" d="M14.887 1.596A9.498 9.498 0 0 0 9.587 0C4.288 0 0 4.284 0 9.579c0 5.295 4.288 9.579 9.588 9.579a9.563 9.563 0 0 0 5.3-1.597c-.04-.026-.08-.06-.12-.093a1.45 1.45 0 0 0-.12-.093 10.282 10.282 0 0 1-3.542-7.796c0-3.007 1.278-5.827 3.542-7.796.04-.027.08-.06.12-.093.04-.034.08-.067.12-.094ZM31 9.58C31 4.31 26.712 0 21.412 0c-1.97 0-3.781.585-5.3 1.596.04.027.08.06.12.094.04.033.08.066.12.093a10.282 10.282 0 0 1 3.542 7.796c0 2.98-1.305 5.827-3.542 7.796-.04.027-.08.06-.12.093-.04.033-.08.067-.12.093a9.563 9.563 0 0 0 5.3 1.597c5.3 0 9.588-4.284 9.588-9.58Zm-15.247-7.31c-.083-.072-.162-.139-.253-.194l-.186.147-.187.146a9.539 9.539 0 0 0-3.302 7.238 9.58 9.58 0 0 0 3.302 7.237c.107.106.24.213.373.293l.186-.147.187-.146a9.538 9.538 0 0 0 3.302-7.237 9.58 9.58 0 0 0-3.422-7.338ZM5.451 22.358v1.588h-.618v-1.404c0-.425-.186-.663-.558-.663-.344 0-.611.213-.611.663v1.405h-.559v-1.405c0-.425-.186-.663-.558-.663-.372 0-.611.213-.611.663v1.405h-.559v-2.543h.559v.318a.86.86 0 0 1 .744-.37c.4 0 .667.16.854.45.238-.346.586-.45.905-.45.64 0 1.012.397 1.012 1.005Zm7.378-.954h.902v.503h-.906v1.138c0 .263.106.423.373.423.133 0 .32-.028.48-.133l.162.479a1.507 1.507 0 0 1-.692.185c-.639 0-.878-.343-.878-.926v-1.166h-.506v-.503h.506v-.769h.559v.769Zm4.979.314a.758.758 0 0 1 .667-.37c.106 0 .264 0 .375.022l-.16.53a1.728 1.728 0 0 0-.348-.052c-.348 0-.534.24-.534.664v1.431h-.558v-2.542h.558v.317Zm-7.536-.37c.4 0 .773.08 1.04.265l-.236.451c-.162-.08-.481-.213-.8-.213-.296 0-.482.105-.482.29 0 .158.186.21.425.238l.267.028c.53.08.878.317.878.768 0 .475-.428.82-1.173.82-.4 0-.8-.104-1.092-.317l.267-.423c.186.133.481.266.853.266.373 0 .587-.133.587-.318 0-.133-.162-.213-.453-.266l-.267-.027c-.558-.078-.878-.318-.878-.741 0-.503.425-.82 1.064-.82Zm15.23.37a.758.758 0 0 1 .667-.37c.109 0 .267 0 .376.028l-.162.524a1.73 1.73 0 0 0-.347-.052c-.348 0-.534.24-.534.664v1.431h-.558v-2.542h.558v.317ZM20.392 24c-.825 0-1.358-.555-1.358-1.324 0-.768.533-1.327 1.358-1.324.373 0 .64.077.906.29l-.266.45a1.096 1.096 0 0 0-.668-.237c-.453.025-.772.343-.772.821 0 .503.32.821.773.821.242 0 .452-.077.667-.238l.266.45c-.266.21-.533.291-.906.291Zm3.807-2.595v2.543h-.558v-.318c-.162.237-.428.37-.8.37-.72 0-1.279-.555-1.279-1.324 0-.768.558-1.324 1.278-1.324.348 0 .615.133.8.37v-.317h.56Zm-1.278.45c-.481 0-.773.37-.773.821 0 .448.295.793.773.821.453 0 .772-.37.772-.82 0-.476-.32-.822-.772-.822Zm-8.734.818c0-.793.534-1.324 1.279-1.324.716 0 1.197.53 1.172 1.349v.213H14.75c.08.447.425.608.772.608.264 0 .531-.105.745-.266l.267.398c-.295.241-.667.346-1.04.346-.772 0-1.306-.528-1.306-1.324Zm1.918-.238c-.053-.395-.292-.607-.64-.607-.4 0-.639.265-.691.607h1.33ZM29.34 20.4V23.948h-.558v-.318c-.162.237-.429.37-.8.37-.72 0-1.28-.555-1.28-1.324 0-.768.56-1.324 1.28-1.324.347 0 .613.133.8.37V20.4h.558Zm-1.278 1.456c-.481 0-.773.37-.773.821 0 .448.292.793.773.821.453 0 .772-.37.772-.82 0-.476-.32-.822-.772-.822Zm-19.468-.45v2.543h-.559v-.318c-.161.237-.428.37-.8.37-.72 0-1.278-.555-1.278-1.324 0-.768.558-1.324 1.278-1.324.347 0 .614.133.8.37v-.317h.559Zm-1.303.45c-.481 0-.773.37-.773.821 0 .448.292.793.773.821.453 0 .772-.37.772-.82 0-.476-.32-.822-.772-.822Z" fill="#333D48"/></svg>
